svg/UnitedNations-Flags/flag-kg.svg

<?xml version="1.0" encoding="UTF-8" standalone="no"?>
<!-- Created with Inkscape (http://www.inkscape.org/) --><svg height="256" id="svg2" inkscape:output_extension="org.inkscape.output.svg.inkscape" inkscape:version="0.46" sodipodi:docbase="C:\Documents and Settings\Jeff\Desktop" sodipodi:docname="Flag_of_Kyrgyzstan.svg" sodipodi:version="0.32" version="1.0" width="256" xmlns="http://www.w3.org/2000/svg" xmlns:cc="http://creativecommons.org/ns#" xmlns:dc="http://purl.org/dc/elements/1.1/" xmlns:inkscape="http://www.inkscape.org/namespaces/inkscape" xmlns:rdf="http://www.w3.org/1999/02/22-rdf-syntax-ns#" xmlns:sodipodi="http://sodipodi.sourceforge.net/DTD/sodipodi-0.dtd" xmlns:svg="http://www.w3.org/2000/svg">
  <metadata>
    <rdf:RDF xmlns:cc="http://web.resource.org/cc/" xmlns:dc="http://purl.org/dc/elements/1.1/" xmlns:rdf="http://www.w3.org/1999/02/22-rdf-syntax-ns#">
      <cc:Work rdf:about="">
        <dc:title></dc:title>
        <dc:description></dc:description>
        <dc:subject>
          <rdf:Bag>
            <rdf:li>unsorted</rdf:li>
          </rdf:Bag>
        </dc:subject>
        <dc:publisher>
          <cc:Agent rdf:about="http://www.openclipart.org/">
            <dc:title>Open Clip Art Library, Source: Wikimedia Commons, Source: Wikimedia Commons, Source: Wikimedia Commons, Source: Wikimedia Commons</dc:title>
          </cc:Agent>
        </dc:publisher>
        <dc:creator>
          <cc:Agent>
            <dc:title></dc:title>
          </cc:Agent>
        </dc:creator>
        <dc:rights>
          <cc:Agent>
            <dc:title></dc:title>
          </cc:Agent>
        </dc:rights>
        <dc:date></dc:date>
        <dc:format>image/svg+xml</dc:format>
        <dc:type rdf:resource="http://purl.org/dc/dcmitype/StillImage"/>
        <cc:license rdf:resource="http://en.wikipedia.org/wiki/Public_domain"/>
        <dc:language>en</dc:language>
      </cc:Work>
    </rdf:RDF>
  </metadata>
  <defs id="defs4">
    <inkscape:perspective id="perspective2738" inkscape:persp3d-origin="500 : 200 : 1" inkscape:vp_x="0 : 300 : 1" inkscape:vp_y="0 : 1000 : 0" inkscape:vp_z="1000 : 300 : 1" sodipodi:type="inkscape:persp3d"/>
    <clipPath id="clip">
      <circle cx="0" cy="-39" id="circle8" r="46" sodipodi:cx="0" sodipodi:cy="-39" sodipodi:rx="46" sodipodi:ry="46"/>
    </clipPath>
    <clipPath id="clipPath2448">
      <circle cx="0" cy="-39" id="circle2398" r="46" sodipodi:cx="0" sodipodi:cy="-39" sodipodi:rx="46" sodipodi:ry="46"/>
    </clipPath>
  </defs>
  <sodipodi:namedview bordercolor="#666666" borderopacity="1.0" gridtolerance="10000" guidetolerance="10" id="base" inkscape:current-layer="layer1" inkscape:cx="556.21815" inkscape:cy="452.02072" inkscape:document-units="px" inkscape:guide-bbox="true" inkscape:pageopacity="0.0" inkscape:pageshadow="2" inkscape:window-height="712" inkscape:window-width="1024" inkscape:window-x="12" inkscape:window-y="144" inkscape:zoom="0.49497475" objecttolerance="10" pagecolor="#ffffff" showborder="true" showgrid="false" showguides="true"/>
  <g id="layer1" inkscape:groupmode="layer" inkscape:label="Layer 1" transform="translate(697.89051,382.42592)">
    <g id="g7179" transform="matrix(0.512,0,0,0.512,-340.57057,-288.82385)">
      <rect height="300" id="rect2400" style="fill:#e8112d" width="500" x="-697.8905" y="-82.425926"/>
      <g id="g2479" style="fill:#ffef00;fill-opacity:1" transform="translate(-447.55054,67.87669)">
        <path d="M 4.2,-54 C 0,-65 9,-82 0,-90 C 3,-78 -7,-65 -4.2,-54 C -1.4,-43 8.4,-43 4.2,-54 z" id="path2482" style="fill:#ffef00;fill-opacity:1"/>
        <path d="M 12.595754,-52.678143 C 10.168243,-64.199739 21.716824,-79.58253 14.079105,-88.891947 C 15.164956,-76.570384 3.2544244,-65.294781 4.2991721,-53.992193 C 5.3439199,-42.689605 15.023265,-41.156547 12.595754,-52.678143 z" id="path2484" style="fill:#ffef00;fill-opacity:1"/>
        <path d="M 20.681355,-50.05918 C 20.086105,-61.818672 33.898902,-75.20548 27.81153,-85.595085 C 26.956495,-73.255356 13.42871,-63.981792 12.692481,-52.654922 C 11.956252,-41.328053 21.276606,-38.299687 20.681355,-50.05918 z" id="path2486" style="fill:#ffef00;fill-opacity:1"/>
        <path d="M 28.257714,-46.207591 C 29.509383,-57.915423 45.24628,-68.976619 40.859145,-80.190585 C 38.084279,-68.136536 23.272337,-61.093356 20.77326,-50.021111 C 18.274182,-38.948866 27.006046,-34.499759 28.257714,-46.207591 z" id="path2488" style="fill:#ffef00;fill-opacity:1"/>
        <path d="M 35.138278,-41.21822 C 38.206044,-52.586105 55.479548,-61.049326 52.900677,-72.81153 C 48.274304,-61.33997 32.542925,-56.700602 28.342535,-46.155616 C 24.142144,-35.61063 32.070511,-29.850334 35.138278,-41.21822 z" id="path2490" style="fill:#ffef00;fill-opacity:1"/>
        <path d="M 41.153616,-35.213919 C 45.961942,-45.961942 64.346719,-51.618796 63.639612,-63.639612 C 57.275651,-53.03301 41.012194,-50.91169 35.213919,-41.153616 C 29.415643,-31.395542 36.34529,-24.465895 41.153616,-35.213919 z" id="path2492" style="fill:#ffef00;fill-opacity:1"/>
        <path d="M 46.155616,-28.342535 C 52.586105,-38.206044 71.629462,-40.917242 72.81153,-52.900677 C 64.866682,-43.420202 48.471608,-43.869163 41.21822,-35.138278 C 33.964832,-26.407392 39.725128,-18.479025 46.155616,-28.342535 z" id="path2494" style="fill:#ffef00;fill-opacity:1"/>
        <path d="M 50.021111,-20.77326 C 57.915423,-29.509383 77.148448,-29.208163 80.190585,-40.859145 C 70.860478,-32.738239 54.737489,-35.746428 46.207591,-28.257714 C 37.677693,-20.769001 42.1268,-12.037137 50.021111,-20.77326 z" id="path2497" style="fill:#ffef00;fill-opacity:1"/>
        <path d="M 52.654922,-12.692481 C 61.818672,-20.086105 80.767786,-16.779885 85.595085,-27.81153 C 75.109458,-21.250156 59.655553,-26.743501 50.05918,-20.681355 C 40.462806,-14.61921 43.491172,-5.2988564 52.654922,-12.692481 z" id="path2499" style="fill:#ffef00;fill-opacity:1"/>
        <path d="M 53.992193,-4.2991721 C 64.199739,-10.168243 82.398351,-3.9384343 88.891947,-14.079105 C 77.508991,-9.2388261 63.104698,-17.082061 52.678143,-12.595754 C 42.251589,-8.1094471 43.784647,1.5698982 53.992193,-4.2991721 z" id="path2501" style="fill:#ffef00;fill-opacity:1"/>
      </g>
      <g id="g2503" style="fill:#ffef00;fill-opacity:1" transform="matrix(0,1,-1,0,-447.55054,67.87669)">
        <path d="M 4.2,-54 C 0,-65 9,-82 0,-90 C 3,-78 -7,-65 -4.2,-54 C -1.4,-43 8.4,-43 4.2,-54 z" id="path2505" style="fill:#ffef00;fill-opacity:1"/>
        <path d="M 12.595754,-52.678143 C 10.168243,-64.199739 21.716824,-79.58253 14.079105,-88.891947 C 15.164956,-76.570384 3.2544244,-65.294781 4.2991721,-53.992193 C 5.3439199,-42.689605 15.023265,-41.156547 12.595754,-52.678143 z" id="path2507" style="fill:#ffef00;fill-opacity:1"/>
        <path d="M 20.681355,-50.05918 C 20.086105,-61.818672 33.898902,-75.20548 27.81153,-85.595085 C 26.956495,-73.255356 13.42871,-63.981792 12.692481,-52.654922 C 11.956252,-41.328053 21.276606,-38.299687 20.681355,-50.05918 z" id="path2509" style="fill:#ffef00;fill-opacity:1"/>
        <path d="M 28.257714,-46.207591 C 29.509383,-57.915423 45.24628,-68.976619 40.859145,-80.190585 C 38.084279,-68.136536 23.272337,-61.093356 20.77326,-50.021111 C 18.274182,-38.948866 27.006046,-34.499759 28.257714,-46.207591 z" id="path2511" style="fill:#ffef00;fill-opacity:1"/>
        <path d="M 35.138278,-41.21822 C 38.206044,-52.586105 55.479548,-61.049326 52.900677,-72.81153 C 48.274304,-61.33997 32.542925,-56.700602 28.342535,-46.155616 C 24.142144,-35.61063 32.070511,-29.850334 35.138278,-41.21822 z" id="path2513" style="fill:#ffef00;fill-opacity:1"/>
        <path d="M 41.153616,-35.213919 C 45.961942,-45.961942 64.346719,-51.618796 63.639612,-63.639612 C 57.275651,-53.03301 41.012194,-50.91169 35.213919,-41.153616 C 29.415643,-31.395542 36.34529,-24.465895 41.153616,-35.213919 z" id="path2515" style="fill:#ffef00;fill-opacity:1"/>
        <path d="M 46.155616,-28.342535 C 52.586105,-38.206044 71.629462,-40.917242 72.81153,-52.900677 C 64.866682,-43.420202 48.471608,-43.869163 41.21822,-35.138278 C 33.964832,-26.407392 39.725128,-18.479025 46.155616,-28.342535 z" id="path2517" style="fill:#ffef00;fill-opacity:1"/>
        <path d="M 50.021111,-20.77326 C 57.915423,-29.509383 77.148448,-29.208163 80.190585,-40.859145 C 70.860478,-32.738239 54.737489,-35.746428 46.207591,-28.257714 C 37.677693,-20.769001 42.1268,-12.037137 50.021111,-20.77326 z" id="path2519" style="fill:#ffef00;fill-opacity:1"/>
        <path d="M 52.654922,-12.692481 C 61.818672,-20.086105 80.767786,-16.779885 85.595085,-27.81153 C 75.109458,-21.250156 59.655553,-26.743501 50.05918,-20.681355 C 40.462806,-14.61921 43.491172,-5.2988564 52.654922,-12.692481 z" id="path2521" style="fill:#ffef00;fill-opacity:1"/>
        <path d="M 53.992193,-4.2991721 C 64.199739,-10.168243 82.398351,-3.9384343 88.891947,-14.079105 C 77.508991,-9.2388261 63.104698,-17.082061 52.678143,-12.595754 C 42.251589,-8.1094471 43.784647,1.5698982 53.992193,-4.2991721 z" id="path2523" style="fill:#ffef00;fill-opacity:1"/>
      </g>
      <g id="g2525" style="fill:#ffef00;fill-opacity:1" transform="matrix(-1,0,0,-1,-447.55054,67.87669)">
        <path d="M 4.2,-54 C 0,-65 9,-82 0,-90 C 3,-78 -7,-65 -4.2,-54 C -1.4,-43 8.4,-43 4.2,-54 z" id="path2527" style="fill:#ffef00;fill-opacity:1"/>
        <path d="M 12.595754,-52.678143 C 10.168243,-64.199739 21.716824,-79.58253 14.079105,-88.891947 C 15.164956,-76.570384 3.2544244,-65.294781 4.2991721,-53.992193 C 5.3439199,-42.689605 15.023265,-41.156547 12.595754,-52.678143 z" id="path2529" style="fill:#ffef00;fill-opacity:1"/>
        <path d="M 20.681355,-50.05918 C 20.086105,-61.818672 33.898902,-75.20548 27.81153,-85.595085 C 26.956495,-73.255356 13.42871,-63.981792 12.692481,-52.654922 C 11.956252,-41.328053 21.276606,-38.299687 20.681355,-50.05918 z" id="path2531" style="fill:#ffef00;fill-opacity:1"/>
        <path d="M 28.257714,-46.207591 C 29.509383,-57.915423 45.24628,-68.976619 40.859145,-80.190585 C 38.084279,-68.136536 23.272337,-61.093356 20.77326,-50.021111 C 18.274182,-38.948866 27.006046,-34.499759 28.257714,-46.207591 z" id="path2533" style="fill:#ffef00;fill-opacity:1"/>
        <path d="M 35.138278,-41.21822 C 38.206044,-52.586105 55.479548,-61.049326 52.900677,-72.81153 C 48.274304,-61.33997 32.542925,-56.700602 28.342535,-46.155616 C 24.142144,-35.61063 32.070511,-29.850334 35.138278,-41.21822 z" id="path2535" style="fill:#ffef00;fill-opacity:1"/>
        <path d="M 41.153616,-35.213919 C 45.961942,-45.961942 64.346719,-51.618796 63.639612,-63.639612 C 57.275651,-53.03301 41.012194,-50.91169 35.213919,-41.153616 C 29.415643,-31.395542 36.34529,-24.465895 41.153616,-35.213919 z" id="path2537" style="fill:#ffef00;fill-opacity:1"/>
        <path d="M 46.155616,-28.342535 C 52.586105,-38.206044 71.629462,-40.917242 72.81153,-52.900677 C 64.866682,-43.420202 48.471608,-43.869163 41.21822,-35.138278 C 33.964832,-26.407392 39.725128,-18.479025 46.155616,-28.342535 z" id="path2539" style="fill:#ffef00;fill-opacity:1"/>
        <path d="M 50.021111,-20.77326 C 57.915423,-29.509383 77.148448,-29.208163 80.190585,-40.859145 C 70.860478,-32.738239 54.737489,-35.746428 46.207591,-28.257714 C 37.677693,-20.769001 42.1268,-12.037137 50.021111,-20.77326 z" id="path2541" style="fill:#ffef00;fill-opacity:1"/>
        <path d="M 52.654922,-12.692481 C 61.818672,-20.086105 80.767786,-16.779885 85.595085,-27.81153 C 75.109458,-21.250156 59.655553,-26.743501 50.05918,-20.681355 C 40.462806,-14.61921 43.491172,-5.2988564 52.654922,-12.692481 z" id="path2543" style="fill:#ffef00;fill-opacity:1"/>
        <path d="M 53.992193,-4.2991721 C 64.199739,-10.168243 82.398351,-3.9384343 88.891947,-14.079105 C 77.508991,-9.2388261 63.104698,-17.082061 52.678143,-12.595754 C 42.251589,-8.1094471 43.784647,1.5698982 53.992193,-4.2991721 z" id="path2545" style="fill:#ffef00;fill-opacity:1"/>
      </g>
      <g id="g2547" style="fill:#ffef00;fill-opacity:1" transform="matrix(0,-1,1,0,-447.55054,67.87669)">
        <path d="M 4.2,-54 C 0,-65 9,-82 0,-90 C 3,-78 -7,-65 -4.2,-54 C -1.4,-43 8.4,-43 4.2,-54 z" id="path2549" style="fill:#ffef00;fill-opacity:1"/>
        <path d="M 12.595754,-52.678143 C 10.168243,-64.199739 21.716824,-79.58253 14.079105,-88.891947 C 15.164956,-76.570384 3.2544244,-65.294781 4.2991721,-53.992193 C 5.3439199,-42.689605 15.023265,-41.156547 12.595754,-52.678143 z" id="path2551" style="fill:#ffef00;fill-opacity:1"/>
        <path d="M 20.681355,-50.05918 C 20.086105,-61.818672 33.898902,-75.20548 27.81153,-85.595085 C 26.956495,-73.255356 13.42871,-63.981792 12.692481,-52.654922 C 11.956252,-41.328053 21.276606,-38.299687 20.681355,-50.05918 z" id="path2553" style="fill:#ffef00;fill-opacity:1"/>
        <path d="M 28.257714,-46.207591 C 29.509383,-57.915423 45.24628,-68.976619 40.859145,-80.190585 C 38.084279,-68.136536 23.272337,-61.093356 20.77326,-50.021111 C 18.274182,-38.948866 27.006046,-34.499759 28.257714,-46.207591 z" id="path2555" style="fill:#ffef00;fill-opacity:1"/>
        <path d="M 35.138278,-41.21822 C 38.206044,-52.586105 55.479548,-61.049326 52.900677,-72.81153 C 48.274304,-61.33997 32.542925,-56.700602 28.342535,-46.155616 C 24.142144,-35.61063 32.070511,-29.850334 35.138278,-41.21822 z" id="path2557" style="fill:#ffef00;fill-opacity:1"/>
        <path d="M 41.153616,-35.213919 C 45.961942,-45.961942 64.346719,-51.618796 63.639612,-63.639612 C 57.275651,-53.03301 41.012194,-50.91169 35.213919,-41.153616 C 29.415643,-31.395542 36.34529,-24.465895 41.153616,-35.213919 z" id="path2559" style="fill:#ffef00;fill-opacity:1"/>
        <path d="M 46.155616,-28.342535 C 52.586105,-38.206044 71.629462,-40.917242 72.81153,-52.900677 C 64.866682,-43.420202 48.471608,-43.869163 41.21822,-35.138278 C 33.964832,-26.407392 39.725128,-18.479025 46.155616,-28.342535 z" id="path2561" style="fill:#ffef00;fill-opacity:1"/>
        <path d="M 50.021111,-20.77326 C 57.915423,-29.509383 77.148448,-29.208163 80.190585,-40.859145 C 70.860478,-32.738239 54.737489,-35.746428 46.207591,-28.257714 C 37.677693,-20.769001 42.1268,-12.037137 50.021111,-20.77326 z" id="path2563" style="fill:#ffef00;fill-opacity:1"/>
        <path d="M 52.654922,-12.692481 C 61.818672,-20.086105 80.767786,-16.779885 85.595085,-27.81153 C 75.109458,-21.250156 59.655553,-26.743501 50.05918,-20.681355 C 40.462806,-14.61921 43.491172,-5.2988564 52.654922,-12.692481 z" id="path2565" style="fill:#ffef00;fill-opacity:1"/>
        <path d="M 53.992193,-4.2991721 C 64.199739,-10.168243 82.398351,-3.9384343 88.891947,-14.079105 C 77.508991,-9.2388261 63.104698,-17.082061 52.678143,-12.595754 C 42.251589,-8.1094471 43.784647,1.5698982 53.992193,-4.2991721 z" id="path2567" style="fill:#ffef00;fill-opacity:1"/>
      </g>
      <circle cx="0" cy="0" id="circle2569" r="54" sodipodi:cx="0" sodipodi:cy="0" sodipodi:rx="54" sodipodi:ry="54" style="fill:#e8112d" transform="translate(-447.55054,67.87669)"/>
      <path d="M -158.95836,112.0634 A 38.825226,38.825226 0 1 1 -236.60881,112.0634 A 38.825226,38.825226 0 1 1 -158.95836,112.0634 z" id="path2571" sodipodi:cx="-197.78358" sodipodi:cy="112.0634" sodipodi:rx="38.825226" sodipodi:ry="38.825226" sodipodi:type="arc" style="fill:none;fill-opacity:1;stroke:#ffef00;stroke-width:8;stroke-linecap:round;stroke-linejoin:round;stroke-miterlimit:4;stroke-dasharray:none;stroke-opacity:1" transform="matrix(1.3676861,0,0,1.3676861,-176.98695,-86.201383)"/>
      <circle cx="0" cy="-3" id="circle2573" r="45" sodipodi:cx="0" sodipodi:cy="-3" sodipodi:rx="45" sodipodi:ry="45" style="fill:#ffef00;fill-opacity:1" transform="matrix(0.8899531,0,0,0.8997326,-447.55054,67.626029)"/>
      <g clip-path="url(#clip)" id="g2575" transform="matrix(0.8899531,0,0,0.8997326,-447.55054,100.01639)">
        <g id="g2577" style="fill:#e8112d">
          <path d="M 45,-63.63961 C 9.8528139,-63.63961 -18.63961,-35.147186 -18.63961,-7.7933471e-15 C -18.63961,35.147186 9.8528139,63.63961 45,63.63961 L 41.4,66.10471 C 4.8913768,66.10471 -24.70471,36.508623 -24.70471,8.0952248e-15 C -24.70471,-36.508623 4.8913768,-66.10471 41.4,-66.10471 L 45,-63.63961 z" id="path2579"/>
          <path d="M 39,-67.84916 C 1.5279436,-67.84916 -28.84916,-37.472056 -28.84916,-8.3088512e-15 C -28.84916,37.472056 1.5279436,67.84916 39,67.84916 L 35.4,70.60241 C -3.5926343,70.60241 -35.20241,38.992634 -35.20241,8.646016e-15 C -35.20241,-38.992634 -3.5926343,-70.60241 35.4,-70.60241 L 39,-67.84916 z" id="path2581"/>
          <path d="M 33,-72.5209 C -7.0521871,-72.5209 -39.5209,-40.052187 -39.5209,-8.8809555e-15 C -39.5209,40.052187 -7.0521871,72.5209 33,72.5209 L 29.4,75.51047 C -12.303281,75.51047 -46.11047,41.703281 -46.11047,9.2470601e-15 C -46.11047,-41.703281 -12.303281,-75.51047 29.4,-75.51047 L 33,-72.5209 z" id="path2583"/>
        </g>
        <g id="g2585" style="fill:#e8112d" transform="scale(-1,1)">
          <path d="M 45,-63.63961 C 9.8528139,-63.63961 -18.63961,-35.147186 -18.63961,-7.7933471e-15 C -18.63961,35.147186 9.8528139,63.63961 45,63.63961 L 41.4,66.10471 C 4.8913768,66.10471 -24.70471,36.508623 -24.70471,8.0952248e-15 C -24.70471,-36.508623 4.8913768,-66.10471 41.4,-66.10471 L 45,-63.63961 z" id="path2587"/>
          <path d="M 39,-67.84916 C 1.5279436,-67.84916 -28.84916,-37.472056 -28.84916,-8.3088512e-15 C -28.84916,37.472056 1.5279436,67.84916 39,67.84916 L 35.4,70.60241 C -3.5926343,70.60241 -35.20241,38.992634 -35.20241,8.646016e-15 C -35.20241,-38.992634 -3.5926343,-70.60241 35.4,-70.60241 L 39,-67.84916 z" id="path2589"/>
          <path d="M 33,-72.5209 C -7.0521871,-72.5209 -39.5209,-40.052187 -39.5209,-8.8809555e-15 C -39.5209,40.052187 -7.0521871,72.5209 33,72.5209 L 29.4,75.51047 C -12.303281,75.51047 -46.11047,41.703281 -46.11047,9.2470601e-15 C -46.11047,-41.703281 -12.303281,-75.51047 29.4,-75.51047 L 33,-72.5209 z" id="path2591"/>
        </g>
      </g>
    </g>
  </g>
</svg>

<svg xmlns="http://www.w3.org/2000/svg" viewBox="0 0 256 256" xmlns:xlink="http://www.w3.org/1999/xlink"><defs><path id="1" d="m4.2-54c-4.2-11 4.8-28-4.2-36 3 12-7 25-4.2 36 2.8 11 12.6 11 8.4 0"/><path id="2" d="m20.681-50.06c-.595-11.759 13.218-25.15 7.13-35.536-.855 12.34-14.383 21.613-15.12 32.94-.736 11.327 8.584 14.355 7.989 2.596"/><path id="3" d="m35.14-41.22c3.068-11.368 20.341-19.831 17.762-31.593-4.626 11.472-20.358 16.11-24.558 26.656-4.2 10.545 3.728 16.305 6.796 4.937"/><path id="4" d="m46.16-28.343c6.43-9.864 25.474-12.575 26.656-24.558-7.945 9.48-24.34 9.03-31.593 17.762-7.253 8.731-1.493 16.659 4.937 6.796"/><path id="5" d="m52.655-12.692c9.164-7.394 28.11-4.087 32.94-15.12-10.486 6.561-25.94 1.068-35.536 7.13-9.596 6.06-6.568 15.382 2.596 7.989"/><path id="6" d="m12.596-52.678c-2.428-11.522 9.121-26.904 1.483-36.21 1.086 12.322-10.825 23.597-9.78 34.9 1.045 11.303 10.724 12.836 8.297 1.314"/><path id="7" d="m41.15-35.21c4.808-10.748 23.19-16.405 22.486-28.426-6.364 10.607-22.627 12.728-28.426 22.486-5.798 9.758 1.131 16.688 5.94 5.94"/><path id="8" d="m53.992-4.299c10.208-5.869 28.406.361 34.9-9.78-11.383 4.84-25.787-3-36.21 1.483-10.427 4.486-8.893 14.166 1.314 8.297"/><clipPath id="0"><circle cy="-39" r="46"/></clipPath><clipPath><circle cy="-39" r="46"/></clipPath></defs><g transform="matrix(.512 0 0 .512 357.32 93.6)"><path fill="#e8112d" d="m-697.89-82.43h500v300h-500z"/><g transform="translate(-447.55 67.877)" fill="#ffef00"><use xlink:href="#1"/><path d="m12.596-52.678c-2.428-11.522 9.121-26.904 1.483-36.21 1.086 12.322-10.825 23.597-9.78 34.9 1.045 11.303 10.724 12.836 8.297 1.314"/><use xlink:href="#2"/><path d="m28.26-46.21c1.252-11.708 16.989-22.769 12.601-33.983-2.775 12.05-17.587 19.1-20.09 30.17-2.499 11.07 6.233 15.521 7.484 3.814"/><use xlink:href="#3"/><path d="m41.15-35.21c4.808-10.748 23.19-16.405 22.486-28.426-6.364 10.607-22.627 12.728-28.426 22.486-5.798 9.758 1.131 16.688 5.94 5.94"/><use xlink:href="#4"/><path d="m50.02-20.773c7.894-8.736 27.13-8.435 30.17-20.09-9.33 8.121-25.453 5.113-33.983 12.601-8.53 7.489-4.081 16.221 3.814 7.484"/><use xlink:href="#5"/><path d="m53.992-4.299c10.208-5.869 28.406.361 34.9-9.78-11.383 4.84-25.787-3-36.21 1.483-10.427 4.486-8.893 14.166 1.314 8.297"/></g><g fill="#ffef00"><g transform="matrix(0 1-1 0-447.55 67.877)"><use xlink:href="#1"/><use xlink:href="#6"/><use xlink:href="#2"/><path d="m28.26-46.21c1.252-11.708 16.989-22.769 12.601-33.983-2.775 12.05-17.587 19.1-20.09 30.17-2.499 11.07 6.233 15.521 7.484 3.814"/><use xlink:href="#3"/><use xlink:href="#7"/><use xlink:href="#4"/><path d="m50.02-20.773c7.894-8.736 27.13-8.435 30.17-20.09-9.33 8.121-25.453 5.113-33.983 12.601-8.53 7.489-4.081 16.221 3.814 7.484"/><use xlink:href="#5"/><use xlink:href="#8"/></g><g transform="matrix(-1 0 0-1-447.55 67.877)"><use xlink:href="#1"/><use xlink:href="#6"/><use xlink:href="#2"/><path d="m28.26-46.21c1.252-11.708 16.989-22.769 12.601-33.983-2.775 12.05-17.587 19.1-20.09 30.17-2.499 11.07 6.233 15.521 7.484 3.814"/><use xlink:href="#3"/><use xlink:href="#7"/><use xlink:href="#4"/><path d="m50.02-20.773c7.894-8.736 27.13-8.435 30.17-20.09-9.33 8.121-25.453 5.113-33.983 12.601-8.53 7.489-4.081 16.221 3.814 7.484" id="C"/><use xlink:href="#5"/><use xlink:href="#8"/></g><g transform="matrix(0-1 1 0-447.55 67.877)"><use xlink:href="#1"/><use xlink:href="#6"/><use xlink:href="#2"/><path d="m28.26-46.21c1.252-11.708 16.989-22.769 12.601-33.983-2.775 12.05-17.587 19.1-20.09 30.17-2.499 11.07 6.233 15.521 7.484 3.814"/><use xlink:href="#3"/><use xlink:href="#7"/><use xlink:href="#4"/><use xlink:href="#C"/><use xlink:href="#5"/><use xlink:href="#8"/></g></g><circle r="54" transform="translate(-447.55 67.877)" fill="#e8112d"/><path d="M-158.95836 112.0634A38.825226 38.825226 0 1 1 -236.60881 112.0634 38.825226 38.825226 0 1 1 -158.95836 112.0634z" transform="matrix(1.36769 0 0 1.36769-176.99-86.2)" fill="none" stroke="#ffef00" stroke-linejoin="round" stroke-linecap="round" stroke-width="8"/><circle cy="-3" r="45" transform="matrix(.88995 0 0 .89973-447.55 67.63)" fill="#ffef00"/><g clip-path="url(#0)" transform="matrix(.88995 0 0 .89973-447.55 100.02)" fill="#e8112d"><path d="m45-63.64c-35.15 0-63.64 28.492-63.64 63.64 0 35.15 28.492 63.64 63.64 63.64l-3.6 2.465c-36.509 0-66.1-29.596-66.1-66.1 0-36.509 29.596-66.1 66.1-66.1l3.6 2.465" id="9"/><path d="m39-67.849c-37.472 0-67.849 30.377-67.849 67.849 0 37.472 30.377 67.849 67.849 67.849l-3.6 2.753c-38.993 0-70.6-31.61-70.6-70.6 0-38.993 31.61-70.6 70.6-70.6l3.6 2.753" id="A"/><path d="m33-72.52c-40.05 0-72.52 32.469-72.52 72.52 0 40.05 32.469 72.52 72.52 72.52l-3.6 2.99c-41.703 0-75.51-33.807-75.51-75.51 0-41.703 33.807-75.51 75.51-75.51l3.6 2.99" id="B"/><g transform="scale(-1 1)"><use xlink:href="#9"/><use xlink:href="#A"/><use xlink:href="#B"/></g></g></g></svg>
